X:11297
T:Mr Grimstocks Waltz. CJF.008
T:Poor Mary Lies A'Weeping,aka. CJF.008
M:3/8
L:1/16
Q:80
C:not by Mr. Grimstock
S: C.J.Fox MS, 1829/33, Beverley,E.Yorks.
R:Waltz
O:England
A:East Yorkshire
B:Kidson Coll.Mitchell Lib.M1805
N:The title is difficult to make out. - PJH.
Z:P J Headford 2000
K:G
GB|d4Bd|e4ge|dedcBA|B3G3 GB|d4Bd|\
e4ge|dedcBA|G4:|:!g2|fa d2d2|gb d2d2|
fa d2d2|g4GB|d4Bd|e4ge|dedcBA|G4:|:!
D2|GFGABc|d2B2B2|c2A2A2|B2G2D2|GFGABc|d2B2B2|c2A2A2|G4:|]
